!!!!SEGMENT: pl-kk--kk-i-329--011_costanzi-giovanni-battista--confitebor-sicut-erat.krn
!!!cenid: 17xx:1930
!!!COM: Costanzi, Giovanni Battista
!!!COM-rismid: pe20000434
!!!CDT: 1704-1778
!!!CNT: Italian
!!!OPR: Confitebor
!!!OTL: Sicut erat
!!!OMV: 011
!!!PDT:
!!!AGN: Sacred
!!!SMS-siglum: PL-Kk
!!!SMS-shelfmark: Kk.I.329
!!!SMS-shelfwork: 001-011 M
!!!SMS-variant:
!!!SMS-altvar:
!!!NIFC-rismid: 1001143621
!!!URL-scan: http://repozytorium.nifc.pl/skany/pl-kk-nut--i-329
!!!ONB-nifc: UWAGA: części Confitebor: 1. Confitebor, 2. Magna opera, 3. Confessio, 4. Memoriam fecit, 5. Memor erit, 6. Fidelia omnia, 7. Redemptionem, 8. Sanctum, 9. Intellectus bonus, 10. Gloria Patri, 11. Sicut erat, 12. Amen
**kern	**fba	**kern	**text	**kern	**text	**kern	**text	**kern	**text	**kern	**text	**kern	**text	**kern	**text
*part8	*	*part7	*part7	*part6	*part6	*part5	*part5	*part4	*part4	*part3	*part3	*part2	*part2	*part1	*part1
*staff8	*	*staff7	*staff7	*staff6	*staff6	*staff5	*staff5	*staff4	*staff4	*staff3	*staff3	*staff2	*staff2	*staff1	*staff1
*Iorgan	*	*Iempty	*	*Itenor	*	*Ialto	*	*Ivox	*	*Iempty	*	*Ialto	*	*Ivox	*
*I"Organo	*	*I"Baſso di Ripieno	*	*I"Tenore di Ripieno	*	*I"Alto di Ripieno	*	*I"Canto di Ripieno	*	*I"Baſso di Concerto	*	*I"Alto di Concerto	*	*I"Canto di Concerto	*
*I'Org.	*	*I'B.Rip.	*	*I'T.Rip.	*	*I'A.Rip.	*	*I'C.Rip.	*	*I'B.Conc.	*	*I'A.Conc.	*	*I'C.Conc.	*
*clefF4	*	*clefF4	*	*clefC4	*	*clefC3	*	*clefC1	*	*clefF4	*	*clefC3	*	*clefC1	*
*k[]	*	*k[]	*	*k[]	*	*k[]	*	*k[]	*	*k[]	*	*k[]	*	*k[]	*
*C:	*	*C:	*	*C:	*	*C:	*	*C:	*	*C:	*	*C:	*	*C:	*
*M4/4	*	*M4/4	*	*M4/4	*	*M4/4	*	*M4/4	*	*M4/4	*	*M4/4	*	*M4/4	*
*met(c)	*	*met(c)	*	*met(c)	*	*met(c)	*	*met(c)	*	*met(c)	*	*met(c)	*	*met(c)	*
*k[fncn]	*	*	*	*	*	*	*	*	*	*	*	*	*	*	*
=1	=1	=1	=1	=1	=1	=1	=1	=1	=1	=1	=1	=1	=1	=1	=1
!LO:TX:a:t=All(egro) a 3.c	!	!	!	!	!	!	!	!	!	!	!	!	!	!	!
!LO:TX:t=P:problem:przy kluczu na początku każdego systemu wpisane krzyżyki f# c# i kasowniki f c	!	!	!	!LO:TX:b:i:t=20.	!	!	!	!LO:TX:b:i:t=20.	!	!LO:TX:a:t=6.	!	!LO:TX:b:i:t=4	!	!LO:TX:b:i:t=2	!
4c\	.	00r	.	00r	.	00r	.	00r	.	00r	.	00r	.	0r	.
4c\	.	.	.	.	.	.	.	.	.	.	.	.	.	.	.
16c\LL	.	.	.	.	.	.	.	.	.	.	.	.	.	.	.
16d\	.	.	.	.	.	.	.	.	.	.	.	.	.	.	.
16e\	.	.	.	.	.	.	.	.	.	.	.	.	.	.	.
16d\JJ	.	.	.	.	.	.	.	.	.	.	.	.	.	.	.
8c\L	.	.	.	.	.	.	.	.	.	.	.	.	.	.	.
8G\J	.	.	.	.	.	.	.	.	.	.	.	.	.	.	.
=2	=2	=2	=2	=2	=2	=2	=2	=2	=2	=2	=2	=2	=2	=2	=2
8c\L	.	.	.	.	.	.	.	.	.	.	.	.	.	.	.
16B\L	.	.	.	.	.	.	.	.	.	.	.	.	.	.	.
16A\JJ	.	.	.	.	.	.	.	.	.	.	.	.	.	.	.
8G\L	.	.	.	.	.	.	.	.	.	.	.	.	.	.	.
8F\J	.	.	.	.	.	.	.	.	.	.	.	.	.	.	.
8E\L	.	.	.	.	.	.	.	.	.	.	.	.	.	.	.
16D\L	.	.	.	.	.	.	.	.	.	.	.	.	.	.	.
16E\JJ	.	.	.	.	.	.	.	.	.	.	.	.	.	.	.
8C\L	.	.	.	.	.	.	.	.	.	.	.	.	.	.	.
8c\J	.	.	.	.	.	.	.	.	.	.	.	.	.	.	.
!LO:LB:g=original	!	!	!	!	!	!	!	!	!	!	!	!	!	!	!
=3	=3	=3	=3	=3	=3	=3	=3	=3	=3	=3	=3	=3	=3	=3	=3
8F\L	.	.	.	.	.	.	.	.	.	.	.	.	.	2r	.
16E\L	.	.	.	.	.	.	.	.	.	.	.	.	.	.	.
16F\JJ	.	.	.	.	.	.	.	.	.	.	.	.	.	.	.
!LO:TX:t=P:problem:mixed beam	!	!	!	!	!	!	!	!	!	!	!	!	!	!	!
8G\L	.	.	.	.	.	.	.	.	.	.	.	.	.	.	.
8GG/J	.	.	.	.	.	.	.	.	.	.	.	.	.	.	.
4C/	.	.	.	.	.	.	.	.	.	.	.	.	.	4cc\	Si-
!LO:TX:a:t=C.	!	!	!	!	!	!	!	!	!	!	!	!	!	!	!
4C/	.	.	.	.	.	.	.	.	.	.	.	.	.	4e\	-cut
=4	=4	=4	=4	=4	=4	=4	=4	=4	=4	=4	=4	=4	=4	=4	=4
4C/	.	.	.	.	.	.	.	.	.	.	.	.	.	8cc\	e-
.	.	.	.	.	.	.	.	.	.	.	.	.	.	16ee\LL	-rat
.	.	.	.	.	.	.	.	.	.	.	.	.	.	16dd\JJ	.
4r	.	.	.	.	.	.	.	.	.	.	.	.	.	8cc\	in
.	.	.	.	.	.	.	.	.	.	.	.	.	.	8cc\	prin-
!	!	!	!	!	!	!	!	!	!	!	!	!	!	!LO:LB:g=original	!
4C/	.	.	.	.	.	.	.	.	.	.	.	.	.	8cc\	-ci-
.	.	.	.	.	.	.	.	.	.	.	.	.	.	16b\LL	-pi-
.	.	.	.	.	.	.	.	.	.	.	.	.	.	16a\JJ	.
8r	.	.	.	.	.	.	.	.	.	.	.	.	.	8g\	-o
8E\	.	.	.	.	.	.	.	.	.	.	.	.	.	8cc\	et
=5	=5	=5	=5	=5	=5	=5	=5	=5	=5	=5	=5	=5	=5	=5	=5
8F\L	.	00r	.	00r	.	00r	.	00r	.	0r	.	2r	.	8a\	nunc
8E\	.	.	.	.	.	.	.	.	.	.	.	.	.	8g\	et
8D\	.	.	.	.	.	.	.	.	.	.	.	.	.	4f/	Sem-
8G\J	7	.	.	.	.	.	.	.	.	.	.	.	.	.	.
!LO:LB:g=original	!	!	!	!	!	!	!	!	!	!	!	!	!	!	!
!LO:TX:a:t=Al.	!	!	!	!	!	!	!	!	!	!	!	!	!	!	!
4C\	.	.	.	.	.	.	.	.	.	.	.	8g\	Si-	4e/	-per
.	.	.	.	.	.	.	.	.	.	.	.	(4g\	-cut	.	.
[4c\	.	.	.	.	.	.	.	.	.	.	.	.	.	4r	.
.	.	.	.	.	.	.	.	.	.	.	.	8a\)	.	.	.
=6	=6	=6	=6	=6	=6	=6	=6	=6	=6	=6	=6	=6	=6	=6	=6
!	!	!	!	!	!	!	!	!	!	!	!	!	!	!LO:TX:b:i:t=3	!
4c\]	.	.	.	.	.	.	.	.	.	.	.	8f\	e-	0r	.
.	.	.	.	.	.	.	.	.	.	.	.	(4f\	-ra	.	.
4B\	.	.	.	.	.	.	.	.	.	.	.	.	.	.	.
.	.	.	.	.	.	.	.	.	.	.	.	8g\)	.	.	.
4c\	.	.	.	.	.	.	.	.	.	.	.	8e\	in	.	.
.	.	.	.	.	.	.	.	.	.	.	.	8f\	prin-	.	.
4C/	.	.	.	.	.	.	.	.	.	.	.	8g\	-ci-	.	.
.	.	.	.	.	.	.	.	.	.	.	.	16f\LL	-pi-	.	.
.	.	.	.	.	.	.	.	.	.	.	.	16e\JJ	.	.	.
!	!	!	!	!	!	!	!	!	!	!	!	!LO:LB:g=original	!	!	!
=7	=7	=7	=7	=7	=7	=7	=7	=7	=7	=7	=7	=7	=7	=7	=7
!LO:TX:a:t=B.	!	!	!	!	!	!	!	!	!	!	!	!	!	!	!
4G\	.	.	.	.	.	.	.	.	.	4G\	Si-	4d\	-o	.	.
4G\	.	.	.	.	.	.	.	.	.	4G\	-cut	4r	.	.	.
8c\L	.	.	.	.	.	.	.	.	.	8c\	e-	2r	.	.	.
16e\L	.	.	.	.	.	.	.	.	.	16e\LL	-rat	.	.	.	.
16d\JJ	.	.	.	.	.	.	.	.	.	16d\JJ	.	.	.	.	.
8c\L	.	.	.	.	.	.	.	.	.	8c\	in	.	.	.	.
8c\J	.	.	.	.	.	.	.	.	.	8c\	prin-	.	.	.	.
!LO:PB:g=original	!	!	!	!	!	!	!	!	!	!	!	!	!	!	!
=8	=8	=8	=8	=8	=8	=8	=8	=8	=8	=8	=8	=8	=8	=8	=8
!LO:TX:t=P:problem:mixed beam	!	!	!	!	!	!	!	!	!	!	!	!LO:TX:b:i:t=4	!	!	!
8c\L	.	.	.	.	.	.	.	.	.	8.c\	-ci-	00r	.	1r	.
8C/	.	.	.	.	.	.	.	.	.	.	.	.	.	.	.
.	.	.	.	.	.	.	.	.	.	16C/	-pi-	.	.	.	.
8C/	.	.	.	.	.	.	.	.	.	8C/	-o	.	.	.	.
8c\J	.	.	.	.	.	.	.	.	.	8c\	et	.	.	.	.
!	!	!	!	!	!	!	!	!	!	!LO:LB:g=original	!	!	!	!	!
8F\L	.	.	.	.	.	.	.	.	.	8F\	nunc	.	.	.	.
8E\	.	.	.	.	.	.	.	.	.	8E\	et	.	.	.	.
8D\	.	.	.	.	.	.	.	.	.	4D\	Sem-	.	.	.	.
8G\J	.	.	.	.	.	.	.	.	.	.	.	.	.	.	.
=9	=9	=9	=9	=9	=9	=9	=9	=9	=9	=9	=9	=9	=9	=9	=9
4C\	.	00r	.	00r	.	00r	.	00r	.	4C/	-per	.	.	8ee\	et
!LO:TX:a:t=C.	!	!	!	!	!	!	!	!	!	!	!	!	!	!	!
.	.	.	.	.	.	.	.	.	.	.	.	.	.	4g\	.
4c\	.	.	.	.	.	.	.	.	.	4r	.	.	.	.	.
.	.	.	.	.	.	.	.	.	.	.	.	.	.	8ee\	in
!	!	!	!	!	!	!	!	!	!	!	!	!	!	!LO:LB:g=original	!
4B\	.	.	.	.	.	.	.	.	.	2r	.	.	.	8dd\	S(a)e-
.	.	.	.	.	.	.	.	.	.	.	.	.	.	4g\	-cu-
4G\	.	.	.	.	.	.	.	.	.	.	.	.	.	.	.
.	.	.	.	.	.	.	.	.	.	.	.	.	.	8dd\	-la
=10	=10	=10	=10	=10	=10	=10	=10	=10	=10	=10	=10	=10	=10	=10	=10
!	!	!	!	!	!	!	!	!	!	!LO:TX:b:i:t=2	!	!	!	!	!
4A\	.	.	.	.	.	.	.	.	.	0r	.	.	.	8cc\	S(a)e-
.	.	.	.	.	.	.	.	.	.	.	.	.	.	16b\LL	-cu-
.	.	.	.	.	.	.	.	.	.	.	.	.	.	16cc\JJ	.
4F#X\	.	.	.	.	.	.	.	.	.	.	.	.	.	8dd\	-lo-
.	.	.	.	.	.	.	.	.	.	.	.	.	.	8cc\	-ru(m)
4G\	.	.	.	.	.	.	.	.	.	.	.	.	.	16b\LL	a-
.	.	.	.	.	.	.	.	.	.	.	.	.	.	16g\	.
.	.	.	.	.	.	.	.	.	.	.	.	.	.	16a\	.
.	.	.	.	.	.	.	.	.	.	.	.	.	.	16b\JJ	.
4G\	.	.	.	.	.	.	.	.	.	.	.	.	.	16cc\LL	.
.	.	.	.	.	.	.	.	.	.	.	.	.	.	16dd\	.
.	.	.	.	.	.	.	.	.	.	.	.	.	.	16ee\	.
.	.	.	.	.	.	.	.	.	.	.	.	.	.	16ff#X\JJ	.
!LO:LB:g=original	!	!	!	!	!	!	!	!	!	!	!	!	!	!	!
=11	=11	=11	=11	=11	=11	=11	=11	=11	=11	=11	=11	=11	=11	=11	=11
8r	.	.	.	.	.	.	.	.	.	.	.	.	.	8gg\L	.
8B\L	.	.	.	.	.	.	.	.	.	.	.	.	.	8dd\	.
8A\	.	.	.	.	.	.	.	.	.	.	.	.	.	8cc\	.
8G\J	.	.	.	.	.	.	.	.	.	.	.	.	.	8b\J	.
!	!	!	!	!	!	!	!	!	!	!	!	!	!	!LO:LB:g=original	!
8D\L	.	.	.	.	.	.	.	.	.	.	.	.	.	4b\	.
8D\	.	.	.	.	.	.	.	.	.	.	.	.	.	.	.
8D\	.	.	.	.	.	.	.	.	.	.	.	.	.	4a\	-men
8D\J	.	.	.	.	.	.	.	.	.	.	.	.	.	.	.
=12	=12	=12	=12	=12	=12	=12	=12	=12	=12	=12	=12	=12	=12	=12	=12
8D\L	.	.	.	.	.	.	.	.	.	8D\L	a-	8f#X\L	a-	2r	.
!LO:TX:a:t=a 3 .c	!	!	!	!	!	!	!	!	!	!	!	!	!	!	!
8E\J	.	.	.	.	.	.	.	.	.	8E\J	.	8g\J	.	.	.
8F#X\L	.	.	.	.	.	.	.	.	.	8F#X\L	.	8a\L	.	.	.
16E\L	.	.	.	.	.	.	.	.	.	16E\L	.	16g\L	.	.	.
16D\JJ	.	.	.	.	.	.	.	.	.	16D\JJ	.	16f#X\JJ	.	.	.
*	*	*	*	*	*	*	*	*	*	*	*	*2\right	*	*	*
8G\L	.	.	.	.	.	.	.	.	.	8G\L	.	2g\	.	8b\L	a-
8A\	.	.	.	.	.	.	.	.	.	8A\J	.	.	.	8cc\	.
8B\	.	.	.	.	.	.	.	.	.	8B\	-men	.	.	8dd\	.
8G\J	.	.	.	.	.	.	.	.	.	8r	.	.	.	8ee\J	.
!	!	!	!	!	!	!	!	!	!	!LO:LB:g=original	!	!	!	!	!
=13	=13	=13	=13	=13	=13	=13	=13	=13	=13	=13	=13	=13	=13	=13	=13
.	.	.	.	.	.	.	.	.	.	.	.	.	.	8qqee/	.
*	*	*	*	*	*	*	*	*	*	*	*	*	*	*2\right	*
8D\L	.	00r	.	00r	.	00r	.	00r	.	8D\L	a-	8f#X\L	.	2dd\	.
8E\J	.	.	.	.	.	.	.	.	.	8E\J	.	8g\J	.	.	.
8F#X\L	.	.	.	.	.	.	.	.	.	8F#X\L	.	8a\L	.	.	.
16E\L	.	.	.	.	.	.	.	.	.	16E\L	.	16g\L	.	.	.
16D\JJ	.	.	.	.	.	.	.	.	.	16D\JJ	.	16f#X\JJ	.	.	.
!LO:LB:g=original	!	!	!	!	!	!	!	!	!	!	!	!	!	!	!
8G\L	.	.	.	.	.	.	.	.	.	8G\L	.	2g\	.	8b\L	.
8A\	.	.	.	.	.	.	.	.	.	8A\J	.	.	.	8cc\	.
8B\	.	.	.	.	.	.	.	.	.	8B\	-men	.	.	8dd\	.
8G\J	6	.	.	.	.	.	.	.	.	8r	.	.	.	8ee\J	.
!	!	!	!	!	!	!	!	!	!	!	!	!LO:LB:g=original	!	!	!
=14	=14	=14	=14	=14	=14	=14	=14	=14	=14	=14	=14	=14	=14	=14	=14
8D\L	.	.	.	.	.	.	.	.	.	8D\L	a-	8f#X\L	.	2dd\	-men
8E\J	.	.	.	.	.	.	.	.	.	8E\	.	8g\J	.	.	.
8F#X\L	.	.	.	.	.	.	.	.	.	8F#X\	.	8a\L	.	.	.
16E\L	.	.	.	.	.	.	.	.	.	16E\L	.	16g\L	.	.	.
16D\JJ	.	.	.	.	.	.	.	.	.	16D\JJ	.	16f#\JJ	.	.	.
4G\	.	.	.	.	.	.	.	.	.	4G\	.	4g\	-men	8r	.
.	.	.	.	.	.	.	.	.	.	.	.	.	.	8dd\L	a-
4B\	.	.	.	.	.	.	.	.	.	4B\	-men	4r	.	8gg\	.
.	.	.	.	.	.	.	.	.	.	.	.	.	.	8ff#X\J	.
!	!	!	!	!	!	!	!	!	!	!	!	!	!	!LO:PB:g=original	!
=15	=15	=15	=15	=15	=15	=15	=15	=15	=15	=15	=15	=15	=15	=15	=15
4c\	.	.	.	.	.	.	.	.	.	8r	.	4r	.	8ee\L	.
.	.	.	.	.	.	.	.	.	.	8G\L	a-	.	.	8dd\J	.
4C/	.	.	.	.	.	.	.	.	.	8c\	.	4g\	a-	4cc\	-men
.	.	.	.	.	.	.	.	.	.	8B\J	.	.	.	.	.
!	!	!	!	!	!	!	!	!	!	!LO:LB:g=original	!	!	!	!	!
4F#X\	.	.	.	.	.	.	.	.	.	4A\	.	8ccn\L	.	8r	.
.	.	.	.	.	.	.	.	.	.	.	.	8b\J	.	8cc\L	a-
4A\	.	.	.	.	.	.	.	.	.	4F#X\	-men	4a\	-men	8ff#X\	.
.	.	.	.	.	.	.	.	.	.	.	.	.	.	8ee\J	.
!LO:LB:g=original	!	!	!	!	!	!	!	!	!	!	!	!	!	!	!
=16	=16	=16	=16	=16	=16	=16	=16	=16	=16	=16	=16	=16	=16	=16	=16
4B\	.	.	.	.	.	.	.	.	.	8r	.	4r	.	8dd\L	.
!	!	!	!	!	!	!	!	!	!	!LO:TX:t=P:problem:mixed beam	!	!	!	!	!
.	.	.	.	.	.	.	.	.	.	8BB/L	a-	.	.	8cc\J	.
4BB/	.	.	.	.	.	.	.	.	.	8B\	.	4f#X\	a-	4b\	-men
.	.	.	.	.	.	.	.	.	.	8A\J	.	.	.	.	.
4E\	.	.	.	.	.	.	.	.	.	4G\	.	8b\L	.	8r	.
.	.	.	.	.	.	.	.	.	.	.	.	8a\J	.	8b\L	a-
4G\	.	.	.	.	.	.	.	.	.	4E\	-men	4g\	-men	8ee\	.
.	.	.	.	.	.	.	.	.	.	.	.	.	.	8dd\J	.
!	!	!	!	!	!	!	!	!	!	!	!	!LO:LB:g=original	!	!	!
=17	=17	=17	=17	=17	=17	=17	=17	=17	=17	=17	=17	=17	=17	=17	=17
4A\	.	00r	.	00r	.	00r	.	00r	.	8r	.	4r	.	8cc\L	.
!	!	!	!	!	!	!	!	!	!	!LO:TX:t=P:problem:mixed beam	!	!	!	!	!
.	.	.	.	.	.	.	.	.	.	8AA/L	a-	.	.	8b\J	.
4AA/	.	.	.	.	.	.	.	.	.	8A\	.	4e\	a-	4a\	.
.	.	.	.	.	.	.	.	.	.	8G\J	.	.	.	.	.
4D\	3#	.	.	.	.	.	.	.	.	4F#X\	.	8a\L	.	16a\LL	.
.	.	.	.	.	.	.	.	.	.	.	.	.	.	16b\	.
.	.	.	.	.	.	.	.	.	.	.	.	8g\J	.	16cc\	.
.	.	.	.	.	.	.	.	.	.	.	.	.	.	16dd\JJ	.
4F#X\	.	.	.	.	.	.	.	.	.	4D\	.	4f#X\	-men	4cc\	.
!	!	!	!	!	!	!	!	!	!	!	!	!	!	!LO:LB:g=original	!
=18	=18	=18	=18	=18	=18	=18	=18	=18	=18	=18	=18	=18	=18	=18	=18
8G\L	.	.	.	.	.	.	.	.	.	8r	.	8r	.	8b\L	.
8G\	.	.	.	.	.	.	.	.	.	8G\L	.	8b\	a-	8gg\J	.
8B\	.	.	.	.	.	.	.	.	.	8B\	.	4g\	.	4gg\	.
8G\J	.	.	.	.	.	.	.	.	.	8G\J	.	.	.	.	.
*2\right	*	*	*	*	*	*	*	*	*	*	*	*	*	*	*
!	!	!	!	!	!	!	!	!	!	!LO:LB:g=original	!	!	!	!	!
2D\	#	.	.	.	.	.	.	.	.	8r	.	16f#X\LL	.	16a\LL	.
.	.	.	.	.	.	.	.	.	.	.	.	16g\	.	16b\	.
.	.	.	.	.	.	.	.	.	.	8D\L	.	16a\	.	16cc\	.
.	.	.	.	.	.	.	.	.	.	.	.	16b\JJ	.	16dd\JJ	.
.	.	.	.	.	.	.	.	.	.	8F#X\	.	4a\	.	4cc\	.
.	.	.	.	.	.	.	.	.	.	8D\J	.	.	.	.	.
=19	=19	=19	=19	=19	=19	=19	=19	=19	=19	=19	=19	=19	=19	=19	=19
!LO:TX:t=P:problem:mixed beam	!	!	!	!	!	!	!	!	!	!	!	!	!	!	!
8GG/L	.	.	.	.	.	.	.	.	.	8r	.	8g\L	.	8b\L	.
8G\	.	.	.	.	.	.	.	.	.	8G\L	.	8b\J	.	16a\L	.
.	.	.	.	.	.	.	.	.	.	.	.	.	.	16b\JJ	.
.	.	.	.	.	.	.	.	.	.	.	.	.	.	8qdd/	.
8B\	.	.	.	.	.	.	.	.	.	8B\	.	4b\	.	8cc\L	.
8G\J	.	.	.	.	.	.	.	.	.	8G\J	.	.	.	16b\L	.
.	.	.	.	.	.	.	.	.	.	.	.	.	.	16a\JJ	.
!LO:LB:g=original	!	!	!	!	!	!	!	!	!	!	!	!	!	!	!
2D\	.	.	.	.	.	.	.	.	.	8r	.	16f#X\LL	.	4b~\	.
.	.	.	.	.	.	.	.	.	.	.	.	16g\	.	.	.
.	.	.	.	.	.	.	.	.	.	8D\L	.	16a\	.	.	.
.	.	.	.	.	.	.	.	.	.	.	.	16b\JJ	.	.	.
.	.	.	.	.	.	.	.	.	.	8F#X\	.	4a\	.	4a~\	.
.	.	.	.	.	.	.	.	.	.	8D\J	.	.	.	.	.
!	!	!	!	!	!	!	!	!	!	!	!	!LO:LB:g=original	!	!	!
=20	=20	=20	=20	=20	=20	=20	=20	=20	=20	=20	=20	=20	=20	=20	=20
4G\	.	.	.	.	.	.	.	.	.	4G\	.	8g\L	.	4g\	-men
.	.	.	.	.	.	.	.	.	.	.	.	16f#X\L	.	.	.
.	.	.	.	.	.	.	.	.	.	.	.	16g\JJ	.	.	.
4c\	.	.	.	.	.	.	.	.	.	4c\	.	8e\L	.	4r	.
.	.	.	.	.	.	.	.	.	.	.	.	16d\L	.	.	.
.	.	.	.	.	.	.	.	.	.	.	.	16c\JJ	.	.	.
8d\L	4	.	.	.	.	.	.	.	.	8d\L	.	8d\L	.	2r	.
16c\L	.	.	.	.	.	.	.	.	.	16B\L	.	8g\J	.	.	.
16c\JJ	.	.	.	.	.	.	.	.	.	16c\JJ	.	.	.	.	.
!LO:TX:t=P:problem:mixed beam	!	!	!	!	!	!	!	!	!	!	!	!	!	!	!
8d\L	.	.	.	.	.	.	.	.	.	8d\L	.	4f#X\	.	.	.
8D/J	.	.	.	.	.	.	.	.	.	8D\J	.	.	.	.	.
!	!	!	!	!	!	!	!	!	!	!LO:PB:g=original	!	!	!	!LO:LB:g=original	!
=21	=21	=21	=21	=21	=21	=21	=21	=21	=21	=21	=21	=21	=21	=21	=21
!LO:TX:a:t=Tutti	!	!	!	!	!	!	!	!	!	!	!	!	!	!LO:TX:b:i:t=6	!
4G\	.	4G\	Si-	4d\	Si-	4g\	Si-	4b\	Si-	4G\	-men	4g\	-men	00r	.
4G\	.	4G\	-cut	4d\	-cut	4g\	-cut	4b\	-cut	4r	.	4r	.	.	.
8G\L	.	8G\	e-	8d\	e-	8g\	e-	8b\	e-	2r	.	2r	.	.	.
16B\L	.	16B\LL	-rat	8g\	-rat	8g\	-rat	16dd\LL	-rat	.	.	.	.	.	.
16G\JJ	.	16A\JJ	.	.	.	.	.	16cc\JJ	.	.	.	.	.	.	.
8G\L	.	8G\	in	8d\	in	8g\	in	8b\	in	.	.	.	.	.	.
8G\J	.	8G\	prin-	8d\	prin-	8g\	prin-	8b\	prin-	.	.	.	.	.	.
!LO:LB:g=original	!	!	!	!	!	!	!	!	!	!	!	!	!	!	!
=22	=22	=22	=22	=22	=22	=22	=22	=22	=22	=22	=22	=22	=22	=22	=22
!	!	!	!	!	!	!	!	!	!	!LO:TX:b:i:t=6.	!	!LO:TX:b:i:t=4	!	!	!
8G\L	.	8G\	-ci-	8d\	-ci-	8g\	-ci-	8b\	-ci-	00r	.	00r	.	.	.
16B\L	.	16B\LL	-pi-	8g\	-pi-	16g\LL	-pi-	16dd\LL	-pi-	.	.	.	.	.	.
16A\JJ	.	16A\JJ	.	.	.	16a\JJ	.	16cc\JJ	.	.	.	.	.	.	.
!	!	!LO:LB:g=original	!	!	!	!	!	!	!	!	!	!	!	!	!
8G\L	.	8G\	-o	8d\	-o	8b\	-o	8b\	-o	.	.	.	.	.	.
8B\J	.	8B\	(et)	8g\	(et)	8g\	(et)	8dd\	(et)	.	.	.	.	.	.
!	!	!	!	!LO:LB:g=original	!	!LO:LB:g=original	!	!LO:LB:g=original	!	!	!	!	!	!	!
8c\L	.	8c\	nunc	8e\	nunc	8g\	nunc	8ee\	nunc	.	.	.	.	.	.
8B\	.	8B\	(et)	8g\	(et)	8g\	(et)	8dd\	et	.	.	.	.	.	.
8A\	.	4A\	Sem-	4c\	Sem-	8g\L	Sem-	4cc\	Sem-	.	.	.	.	.	.
8D\J	7	.	.	.	.	8f\J	.	.	.	.	.	.	.	.	.
=23	=23	=23	=23	=23	=23	=23	=23	=23	=23	=23	=23	=23	=23	=23	=23
4G\	.	4G\	-per	4d\	-per	4g\	-per	4b\	-per	.	.	.	.	.	.
8G\L	.	8G\	(et)	4r	.	8b\	(et)	8dd\	(et)	.	.	.	.	.	.
8G\J	.	8G\	in	.	.	8b\	in	8dd\	in	.	.	.	.	.	.
8A\L	.	8A\	S(a)e-	2r	.	8e\	S(a)e-	8cc\	S(a)e-	.	.	.	.	.	.
16B\L	.	16B\	-cu-	.	.	16g\	-cu-	16b\	-cu-	.	.	.	.	.	.
16c\JJ	.	16c\	-la	.	.	16g\	-la	16a\	-la	.	.	.	.	.	.
8d\L	4	8d\	S(a)e-	.	.	8g\	S(a)e-	8a\	S(a)e-	.	.	.	.	.	.
8D\J	#3	8D/	-cu-	.	.	8f\	-cu-	8a\	-cu-	.	.	.	.	.	.
!	!	!LO:LB:g=original	!	!	!	!	!	!	!	!	!	!	!	!	!
=24	=24	=24	=24	=24	=24	=24	=24	=24	=24	=24	=24	=24	=24	=24	=24
8G\L	.	8G\	-lo-	4d\	a-	4g\	-lo-	8b\L	-lo-	.	.	.	.	.	.
16A\L	.	16G\LL	.	.	.	.	.	16cc\L	.	.	.	.	.	.	.
16B\JJ	.	16A\JJ	.	.	.	.	.	16dd\JJ	.	.	.	.	.	.	.
*	*	*	*	*2\right	*	*	*	*	*	*	*	*	*	*	*
!LO:TX:t=P:problem:mixed beam	!	!LO:TX:t=P:problem:mixed beam	!	!	!	!	!	!	!	!	!	!	!	!	!
8c\L	.	8c\L	-rum	2c\	.	4g\	-rum	[4ee\	.	.	.	.	.	.	.
8C/J	.	8C/J	.	.	.	.	.	.	.	.	.	.	.	.	.
!LO:LB:g=original	!	!	!	!	!	!LO:LB:g=original	!	!LO:LB:g=original	!	!	!	!	!	!	!
8F#X\L	.	8F#X\L	a-	.	.	4.a\	a-	4ee\]	.	.	.	.	.	.	.
16G\L	.	16G\L	.	.	.	.	.	.	.	.	.	.	.	.	.
16A\JJ	.	16A\JJ	.	.	.	.	.	.	.	.	.	.	.	.	.
8B\L	.	8B\L	.	[4B\	.	.	.	[4dd\	.	.	.	.	.	.	.
!LO:TX:t=P:problem:mixed beam	!	!LO:TX:t=P:problem:mixed beam	!	!	!	!	!	!	!	!	!	!	!	!	!
8BB/J	.	8BB/J	.	.	.	16b\LL	.	.	.	.	.	.	.	.	.
.	.	.	.	.	.	16a\JJ	.	.	.	.	.	.	.	.	.
=25	=25	=25	=25	=25	=25	=25	=25	=25	=25	=25	=25	=25	=25	=25	=25
8E\L	.	8E\L	.	4B\]	.	4.g\	.	4dd\]	.	.	.	.	.	0r	.
16F#X\L	.	16F#X\L	.	.	.	.	.	.	.	.	.	.	.	.	.
16G\JJ	.	16G\JJ	.	.	.	.	.	.	.	.	.	.	.	.	.
!LO:TX:t=P:problem:mixed beam	!	!LO:TX:t=P:problem:mixed beam	!	!	!	!	!	!	!	!	!	!	!	!	!
8A\L	.	8A\L	.	4A\	.	.	.	4cc#X\	.	.	.	.	.	.	.
8AA/J	.	8AA/J	.	.	.	16a\LL	.	.	.	.	.	.	.	.	.
.	.	.	.	.	.	16g\JJ	.	.	.	.	.	.	.	.	.
8D\L	.	8D\L	-men	8A\L	.	8f#X\L	.	8dd\L	-rum	.	.	.	.	.	.
8d\	.	8d\	a-	8f#X\	.	8a\J	.	8a\J	.	.	.	.	.	.	.
8B\	.	8B\	.	8g\	.	[4g\	.	4b\	.	.	.	.	.	.	.
8G\J	.	8G\J	.	8d\J	.	.	.	.	.	.	.	.	.	.	.
!	!	!LO:LB:g=original	!	!LO:LB:g=original	!	!	!	!	!	!	!	!	!	!	!
=26	=26	=26	=26	=26	=26	=26	=26	=26	=26	=26	=26	=26	=26	=26	=26
*	*	*	*	*	*	*	*	*2\right	*	*	*	*	*	*	*
8cn\L	.	8c\L	.	8e\L	.	4g\]	.	2a\	a-	0r	.	2r	.	.	.
8A\	.	8A\	.	8c\J	.	.	.	.	.	.	.	.	.	.	.
8d\	.	8d\	.	4d\	.	4f#X\	.	.	.	.	.	.	.	.	.
8D\J	#3	8D\J	.	.	.	.	.	.	.	.	.	.	.	.	.
!LO:LB:g=original	!	!	!	!	!	!	!	!	!	!	!	!	!	!	!
!LO:TX:a:t=Soli	!	!	!	!	!	!	!	!	!	!	!	!	!	!	!
8G\L	.	4G\	-men	4d\	-men	4g\	-men	4b\	-men	.	.	4g\	Si-	.	.
8A\	.	.	.	.	.	.	.	.	.	.	.	.	.	.	.
8B\	.	4r	.	4r	.	4r	.	4r	.	.	.	4g\	-cut	.	.
8A\J	.	.	.	.	.	.	.	.	.	.	.	.	.	.	.
!	!	!	!	!	!	!LO:PB:g=original	!	!	!	!	!	!	!	!	!
=27	=27	=27	=27	=27	=27	=27	=27	=27	=27	=27	=27	=27	=27	=27	=27
!	!	!LO:TX:b:i:t=13	!	!LO:TX:b:i:t=13	!	!LO:TX:b:i:t=13	!	!LO:TX:b:i:t=13	!	!	!	!	!	!LO:TX:t=P:problem:w źródle brakuje jednego taktu żeby sie zgadzało z canto i z organo	!
4G\	.	00r	.	00r	.	00r	.	00r	.	.	.	8g\	e-	1ryy	.
.	.	.	.	.	.	.	.	.	.	.	.	16b\LL	-rat	.	.
.	.	.	.	.	.	.	.	.	.	.	.	16a\JJ	.	.	.
4G\	.	.	.	.	.	.	.	.	.	.	.	8g\	in	.	.
.	.	.	.	.	.	.	.	.	.	.	.	8g\	prin-	.	.
!	!	!	!	!	!	!	!	!	!	!	!	!LO:LB:g=original	!	!	!
4G\	.	.	.	.	.	.	.	.	.	.	.	8g\	-ci-	.	.
.	.	.	.	.	.	.	.	.	.	.	.	16f#X\LL	-pi-	.	.
.	.	.	.	.	.	.	.	.	.	.	.	16e\JJ	.	.	.
8B\L	.	.	.	.	.	.	.	.	.	.	.	8d\	-o	.	.
8B\J	.	.	.	.	.	.	.	.	.	.	.	8g\	et	.	.
=28	=28	=28	=28	=28	=28	=28	=28	=28	=28	=28	=28	=28	=28	=28	=28
8A\L	.	.	.	.	.	.	.	.	.	2r	.	8cc\	nun	2r	.
8G\	.	.	.	.	.	.	.	.	.	.	.	8b\	et	.	.
8F#X\	.	.	.	.	.	.	.	.	.	.	.	4a\	Sem-	.	.
8D\J	.	.	.	.	.	.	.	.	.	.	.	.	.	.	.
8G\L	.	.	.	.	.	.	.	.	.	4G\	Si-	4g\	-per	4b\	Si-
8A\	.	.	.	.	.	.	.	.	.	.	.	.	.	.	.
8B\	.	.	.	.	.	.	.	.	.	4G\	-cut	4r	.	4b\	-cut
8A\J	.	.	.	.	.	.	.	.	.	.	.	.	.	.	.
=29	=29	=29	=29	=29	=29	=29	=29	=29	=29	=29	=29	=29	=29	=29	=29
!	!	!	!	!	!	!	!	!	!	!	!	!LO:TX:b:i:t=1	!	!	!
4G\	.	.	.	.	.	.	.	.	.	8G\	e-	1r	.	8b\	e-
.	.	.	.	.	.	.	.	.	.	16B\LL	-rat	.	.	16dd\LL	-rat
.	.	.	.	.	.	.	.	.	.	16A\JJ	.	.	.	16cc\JJ	.
4G\	.	.	.	.	.	.	.	.	.	8G\	in	.	.	8b\	in
.	.	.	.	.	.	.	.	.	.	8G\	prin-	.	.	8b\	prin-
!LO:PB:g=original	!	!	!	!	!	!	!	!	!	!LO:LB:g=original	!	!	!	!	!
4G\	.	.	.	.	.	.	.	.	.	8G\	-ci-	.	.	8b\	-ci-
.	.	.	.	.	.	.	.	.	.	16F#X\LL	-pi-	.	.	16a\LL	-pi-
.	.	.	.	.	.	.	.	.	.	16G\JJ	.	.	.	16b\JJ	.
4B\	.	.	.	.	.	.	.	.	.	8GG/	-o	.	.	8g\	-o
.	.	.	.	.	.	.	.	.	.	8G\	et	.	.	8dd\	et
!	!	!	!	!	!	!	!	!	!	!	!	!	!	!LO:LB:g=original	!
=30	=30	=30	=30	=30	=30	=30	=30	=30	=30	=30	=30	=30	=30	=30	=30
8c\L	.	.	.	.	.	.	.	.	.	8c\	nunc	2r	.	8ee\	nunc
8B\	.	.	.	.	.	.	.	.	.	8B\	et	.	.	8dd\	et
8A\	.	.	.	.	.	.	.	.	.	8A\L	Se-	.	.	4cc\	Sem-
8D\J	.	.	.	.	.	.	.	.	.	8D\J	.	.	.	.	.
8G\L	.	.	.	.	.	.	.	.	.	4G\	-mper	4g\	et	4b\	-per
8A\	.	.	.	.	.	.	.	.	.	.	.	.	.	.	.
8B\	.	.	.	.	.	.	.	.	.	4r	.	4g\	in	4r	.
8c\J	.	.	.	.	.	.	.	.	.	.	.	.	.	.	.
!	!	!	!	!	!	!	!	!	!	!	!	!LO:LB:g=original	!	!	!
=31	=31	=31	=31	=31	=31	=31	=31	=31	=31	=31	=31	=31	=31	=31	=31
4d\	#	00r	.	00r	.	00r	.	00r	.	2r	.	8f#X\	S(a)e-	4dd\	et
.	.	.	.	.	.	.	.	.	.	.	.	16e\	-cu-	.	.
.	.	.	.	.	.	.	.	.	.	.	.	16d\	-la	.	.
4D\	.	.	.	.	.	.	.	.	.	.	.	8f#\	S(a)e-	4dd\	in
.	.	.	.	.	.	.	.	.	.	.	.	8g\	-cu-	.	.
4A\	n3	.	.	.	.	.	.	.	.	4A\	et	4a\	-lo-	8ccn\	S(a)e-
.	.	.	.	.	.	.	.	.	.	.	.	.	.	16b\	-cu-
.	.	.	.	.	.	.	.	.	.	.	.	.	.	16a\	-la
4AA/	.	.	.	.	.	.	.	.	.	4A\	in	4a\	-rum	8cc\	S(a)e-
.	.	.	.	.	.	.	.	.	.	.	.	.	.	8dd\	-cu-
!	!	!	!	!	!	!	!	!	!	!LO:LB:g=original	!	!	!	!	!
=32	=32	=32	=32	=32	=32	=32	=32	=32	=32	=32	=32	=32	=32	=32	=32
4E\	n3	.	.	.	.	.	.	.	.	8G\	S(a))e-	8b\L	a-	4ee\	-lo-
.	.	.	.	.	.	.	.	.	.	16F\LL	-cu-	16a\L	.	.	.
.	.	.	.	.	.	.	.	.	.	16E\JJ	-la	16g\JJ	.	.	.
8G\L	.	.	.	.	.	.	.	.	.	8G\	S(a)e-	8b\L	.	4ee\	-rum
8A\J	.	.	.	.	.	.	.	.	.	8A\	-cu-	8ccn\J	.	.	.
!LO:LB:g=original	!	!	!	!	!	!	!	!	!	!	!	!	!	!LO:LB:g=original	!
4B\	.	.	.	.	.	.	.	.	.	8B\	-lo-	8f#X\L	.	8dd#X\L	a-
.	.	.	.	.	.	.	.	.	.	8BB/	-rum	8e\J	.	16cc#X\L	.
.	.	.	.	.	.	.	.	.	.	.	.	.	.	16dd#\JJ	.
!LO:TX:t=P:problem:mixed beam	!	!	!	!	!	!	!	!	!	!	!	!	!	!	!
8BB/L	.	.	.	.	.	.	.	.	.	8r	.	4d#X\	.	8b\L	.
8B\J	.	.	.	.	.	.	.	.	.	8B\	a-	.	.	8dd#\J	.
=33	=33	=33	=33	=33	=33	=33	=33	=33	=33	=33	=33	=33	=33	=33	=33
!	!	!	!	!	!	!	!	!	!	!	!	!	!	!LO:TX:t=P:problem:mixed beam	!
8G\L	6	.	.	.	.	.	.	.	.	8G\L	.	8b\L	.	8ee\L	.
16F#X\L	.	.	.	.	.	.	.	.	.	16F\L	.	16a\L	.	8e/J	.
16G\JJ	.	.	.	.	.	.	.	.	.	16G\JJ	.	16b\JJ	.	.	.
8E\L	.	.	.	.	.	.	.	.	.	8E\L	.	8g\L	.	8r	.
8G\J	.	.	.	.	.	.	.	.	.	8G\J	.	8b\J	.	8ee\	.
!	!	!	!	!	!	!	!	!	!	!	!	!LO:PB:g=original	!	!	!
!LO:TX:t=P:problem:mixed beam	!	!	!	!	!	!	!	!	!	!	!	!	!	!	!
8A\L	.	.	.	.	.	.	.	.	.	8A\	.	8e\L	.	8ccn\L	.
8AA/J	.	.	.	.	.	.	.	.	.	8AA/	-men	8d\J	.	16b\L	.
.	.	.	.	.	.	.	.	.	.	.	.	.	.	16cc\JJ	.
8r	.	.	.	.	.	.	.	.	.	8r	.	8cn\L	.	8a\L	.
8A\	.	.	.	.	.	.	.	.	.	8A\	a-	8e\J	.	8cc\J	.
!	!	!	!	!	!	!	!	!	!	!LO:LB:g=original	!	!	!	!	!
=34	=34	=34	=34	=34	=34	=34	=34	=34	=34	=34	=34	=34	=34	=34	=34
!	!	!	!	!	!	!	!	!	!	!	!	!	!	!LO:TX:t=P:problem:mixed beam	!
8F#X\L	.	.	.	.	.	.	.	.	.	8F#X\L	.	8a\L	.	8dd\L	.
16E\L	.	.	.	.	.	.	.	.	.	16E\L	.	16g\L	.	8d/J	.
16F#\JJ	.	.	.	.	.	.	.	.	.	16F#\JJ	.	16a\JJ	.	.	.
8D\L	.	.	.	.	.	.	.	.	.	8D\L	.	8f#X\L	.	8r	.
8F#\J	.	.	.	.	.	.	.	.	.	8F#\J	.	8a\J	.	8dd\	.
!LO:LB:g=original	!	!	!	!	!	!	!	!	!	!	!	!	!	!	!
!LO:TX:t=P:problem:mixed beam	!	!	!	!	!	!	!	!	!	!	!	!	!	!	!
8G\L	.	.	.	.	.	.	.	.	.	8G\	.	4.g\	.	8b\L	.
8GG/J	.	.	.	.	.	.	.	.	.	8GG/	-men	.	.	16a\L	.
.	.	.	.	.	.	.	.	.	.	.	.	.	.	16b\JJ	.
8r	.	.	.	.	.	.	.	.	.	8r	.	.	.	8g\L	.
8G\	.	.	.	.	.	.	.	.	.	8G\	a-	8d\	.	8b\J	.
!	!	!	!	!	!	!	!	!	!	!	!	!	!	!LO:LB:g=original	!
=35	=35	=35	=35	=35	=35	=35	=35	=35	=35	=35	=35	=35	=35	=35	=35
2C\	.	00r	.	00r	.	00r	.	00r	.	4c\	.	8e\L	.	8cc\L	.
.	.	.	.	.	.	.	.	.	.	.	.	16d\L	.	8g\J	.
.	.	.	.	.	.	.	.	.	.	.	.	16e\JJ	.	.	.
.	.	.	.	.	.	.	.	.	.	4C/	.	8c\L	.	[4cc\	.
.	.	.	.	.	.	.	.	.	.	.	.	8e\J	.	.	.
2D\	7	.	.	.	.	.	.	.	.	4D\	.	4.fn\	.	8cc\L]	.
.	.	.	.	.	.	.	.	.	.	.	.	.	.	16b\L	.
.	.	.	.	.	.	.	.	.	.	.	.	.	.	16cc\JJ	.
.	6	.	.	.	.	.	.	.	.	4d\	.	.	.	[4dd\	.
.	.	.	.	.	.	.	.	.	.	.	.	16e\LL	.	.	.
.	.	.	.	.	.	.	.	.	.	.	.	16f\JJ	.	.	.
!	!	!	!	!	!	!	!	!	!	!	!	!LO:LB:g=original	!	!	!
=36	=36	=36	=36	=36	=36	=36	=36	=36	=36	=36	=36	=36	=36	=36	=36
2E\	7	.	.	.	.	.	.	.	.	4e\	.	4.g\	.	8dd\L]	.
.	.	.	.	.	.	.	.	.	.	.	.	.	.	16cc\L	.
.	.	.	.	.	.	.	.	.	.	.	.	.	.	16dd\JJ	.
.	6	.	.	.	.	.	.	.	.	4E\	.	.	.	[4ee\	.
.	.	.	.	.	.	.	.	.	.	.	.	16fn\LL	.	.	.
.	.	.	.	.	.	.	.	.	.	.	.	16g\JJ	.	.	.
!	!	!	!	!	!	!	!	!	!	!LO:LB:g=original	!	!	!	!	!
2Fn\	7	.	.	.	.	.	.	.	.	4.Fn\	.	4.a\	.	8ee\L]	.
.	.	.	.	.	.	.	.	.	.	.	.	.	.	8cc\	.
.	6	.	.	.	.	.	.	.	.	.	.	.	.	8a\	.
.	.	.	.	.	.	.	.	.	.	16E\LL	.	8fn\	.	8dd\J	.
.	.	.	.	.	.	.	.	.	.	16F\JJ	.	.	.	.	.
=37	=37	=37	=37	=37	=37	=37	=37	=37	=37	=37	=37	=37	=37	=37	=37
4.G\	.	.	.	.	.	.	.	.	.	4.G\	.	8d\L	.	8b\L	.
.	.	.	.	.	.	.	.	.	.	.	.	8e\	.	8cc\	.
.	.	.	.	.	.	.	.	.	.	.	.	8f\	.	8dd\	.
8F\	.	.	.	.	.	.	.	.	.	8F\	.	8d\J	.	8b\J	.
8E\L	.	.	.	.	.	.	.	.	.	8E\L	.	8e\L	.	8cc\L	.
8D\	.	.	.	.	.	.	.	.	.	8D\	.	8f\J	.	8dd\J	.
8C\	.	.	.	.	.	.	.	.	.	8C\	.	8g\	.	8ee\	.
8E\J	.	.	.	.	.	.	.	.	.	8E\J	.	8r	.	8r	.
!LO:LB:g=original	!	!	!	!	!	!	!	!	!	!	!	!	!	!LO:LB:g=original	!
=38	=38	=38	=38	=38	=38	=38	=38	=38	=38	=38	=38	=38	=38	=38	=38
4.G\	.	.	.	.	.	.	.	.	.	4.G\	.	8d\L	.	8b\L	.
.	.	.	.	.	.	.	.	.	.	.	.	8e\	.	8cc\	.
.	.	.	.	.	.	.	.	.	.	.	.	8f\	.	8dd\	.
8F\	.	.	.	.	.	.	.	.	.	8F\	.	8d\J	.	8b\J	.
8E\L	.	.	.	.	.	.	.	.	.	8E\L	.	8e\L	.	8cc\L	.
8D\	.	.	.	.	.	.	.	.	.	8D\	.	8f\J	.	8dd\J	.
8C\	.	.	.	.	.	.	.	.	.	8C\	.	[4g\	.	8ee\	.
8E\J	.	.	.	.	.	.	.	.	.	8E\J	.	.	.	8r	.
!	!	!	!	!	!	!	!	!	!	!	!	!LO:LB:g=original	!	!	!
=39	=39	=39	=39	=39	=39	=39	=39	=39	=39	=39	=39	=39	=39	=39	=39
.	x 9	.	.	.	.	.	.	.	.	.	.	.	.	.	.
4F\	n3 8	1r	.	1r	.	1r	.	1r	.	4.F\	.	8g\L]	.	4a\	.
.	.	.	.	.	.	.	.	.	.	.	.	16f\L	.	.	.
.	.	.	.	.	.	.	.	.	.	.	.	16g\JJ	.	.	.
4F#X\	.	.	.	.	.	.	.	.	.	.	.	4a\	.	8dd\L	.
.	.	.	.	.	.	.	.	.	.	8F#X\	.	.	.	8cc\J	.
8G\L	.	.	.	.	.	.	.	.	.	8G\L	.	8d\L	.	8b\L	.
8Fn\	.	.	.	.	.	.	.	.	.	8Fn\	.	8a\	.	16a\L	.
.	.	.	.	.	.	.	.	.	.	.	.	.	.	16b\JJ	.
8E\	.	.	.	.	.	.	.	.	.	8E\	.	8g\	.	[4cc\	.
8F\J	.	.	.	.	.	.	.	.	.	8F\J	.	8f\J	.	.	.
!	!	!	!	!	!	!	!	!LO:PB:g=original	!	!LO:LB:g=original	!	!	!	!	!
=40	=40	=40	=40	=40	=40	=40	=40	=40	=40	=40	=40	=40	=40	=40	=40
4G\	6 4	2r	.	2r	.	2r	.	2r	.	4G\	.	8e\L	.	8cc\L]	.
.	.	.	.	.	.	.	.	.	.	.	.	8f\J	.	16dd\L	.
.	.	.	.	.	.	.	.	.	.	.	.	.	.	16a\JJ	.
4GG/	.	.	.	.	.	.	.	.	.	4GG/	.	4d\	.	8b\L	.
.	.	.	.	.	.	.	.	.	.	.	.	.	.	16a\L	.
.	.	.	.	.	.	.	.	.	.	.	.	.	.	16b\JJ	.
!LO:TX:a:t=Tutti	!	!	!	!	!	!	!	!	!	!	!	!	!	!	!
4C\	.	4c\	Si-	4c\	Si-	4e\	Si-	4cc\	Si-	4C/	-men	4c\	-men	4cc\	-men
4C\	.	4c\	-cut	4c\	-cut	4e\	-cut	4ee\	-cut	4r	.	4r	.	4r	.
!LO:LB:g=original	!	!	!	!	!	!	!	!	!	!	!	!	!	!LO:LB:g=original	!
=41	=41	=41	=41	=41	=41	=41	=41	=41	=41	=41	=41	=41	=41	=41	=41
!	!	!	!	!	!	!	!	!	!	!	!	!	!	!LO:TX:b:i:t=7	!
8C\L	.	8c\	e-	8c\	e-	8e\	e-	8gg\	er-	1ryy	.	00r	.	00r	.
16E\L	.	16e\LL	-rat	8G/	-rat	(16g\LL	-rat	8ee\	-at	.	.	.	.	.	.
16D\JJ	.	16d\JJ	.	.	.	16f\JJ)	.	.	.	.	.	.	.	.	.
8C/L	.	8c\	in	8c\	in	8e\	in	8ee\	in	.	.	.	.	.	.
8C/J	.	8c\	prin-	8e\	prin-	8e\	prin-	16cc\LL	prin-	.	.	.	.	.	.
.	.	.	.	.	.	.	.	16b\JJ	.	.	.	.	.	.	.
!	!	!LO:LB:g=original	!	!LO:LB:g=original	!	!	!	!	!	!	!	!	!	!	!
8C/L	.	8c\	-ci-	8c\	-ci-	8e\	-ci-	8cc\	-ci-	.	.	.	.	.	.
16E/L	.	16e\LL	-pi-	8G\	-pi-	16g\LL	-pi-	8ee\	-pi-	.	.	.	.	.	.
16D/JJ	.	16d\JJ	.	.	.	16f\JJ	.	.	.	.	.	.	.	.	.
8C/L	.	8c\	-o	8c\	-o	8e\	-o	8gg\	-o	.	.	.	.	.	.
8C/J	.	8C/	(et)	8c\	(et)	8g\	(et)	8ee\	(et)	.	.	.	.	.	.
!	!	!	!	!	!	!LO:LB:g=original	!	!	!	!	!	!	!	!	!
=42	=42	=42	=42	=42	=42	=42	=42	=42	=42	=42	=42	=42	=42	=42	=42
8F\L	6	8F\	nunc	8c\	nunc	8a\	nunc	8ff\	nunc	1ryy	.	.	.	.	.
8E\	6	8E\	(et)	8c\	(et)	8g\	(et)	8cc\	(et)	.	.	.	.	.	.
8D\	3	4D\	sem-	8c\L	Sem-	4f\	Sem-	4dd\	Sem-	.	.	.	.	.	.
8D\J	6	.	.	8B\J	.	.	.	.	.	.	.	.	.	.	.
!	!	!	!	!	!	!	!	!LO:LB:g=original	!	!	!	!	!	!	!
4C/	.	4C/	-per	4c\	-per	4e\	-per	4g\	-per	.	.	.	.	.	.
8c\L	.	8c\	(et)	4r	.	4r	.	8ee\	(et)	.	.	.	.	.	.
8c\J	.	8c\	in	.	.	.	.	8ee\	in	.	.	.	.	.	.
=43	=43	=43	=43	=43	=43	=43	=43	=43	=43	=43	=43	=43	=43	=43	=43
1G\	.	8B\	S(a)e-	2r	.	4g\	(et)	8dd\	S(a)e-	1ryy	.	.	.	.	.
.	.	16A\	-cu-	.	.	.	.	16cc\	-cu-	.	.	.	.	.	.
.	.	16G\	-la	.	.	.	.	16b\	-la	.	.	.	.	.	.
.	.	8c\	s(a)e-	.	.	4g\	in	8ee\	S(a)e-	.	.	.	.	.	.
.	.	8c\	-cu-	.	.	.	.	8ee\	-cu-	.	.	.	.	.	.
!	!	!LO:LB:g=original	!	!	!	!	!	!	!	!	!	!	!	!	!
.	.	8B\	-lo-	4r	.	4g\	S(a)e-	8dd\	-lo-	.	.	.	.	.	.
.	.	16A\LL	-rum	.	.	.	.	16cc\LL	-rum	.	.	.	.	.	.
.	.	16G\JJ	.	.	.	.	.	16b\JJ	.	.	.	.	.	.	.
.	.	8c\	S(a)e-	8c\	S(a)e-	8g\	-cu-	8ee\	S(a)e-	.	.	.	.	.	.
.	.	8c\	-cu-	8c\	-cu-	8g\	-la	8ee\	-cu-	.	.	.	.	.	.
!LO:LB:g=original	!	!	!	!LO:LB:g=original	!	!	!	!LO:LB:g=original	!	!	!	!	!	!	!
=44	=44	=44	=44	=44	=44	=44	=44	=44	=44	=44	=44	=44	=44	=44	=44
*	*	*	*	*	*	*2\right	*	*	*	*	*	*	*	*	*
4.G\	.	4.G\	-lo-	8B\L	-lo-	2g\	S(a)e-	8dd\L	-lo-	1ryy	.	.	.	.	.
.	.	.	.	8A\J	.	.	.	8cc\J	.	.	.	.	.	.	.
.	.	.	.	8G\L	-rum	.	.	8b\	.	.	.	.	.	.	.
8F\	.	8F\	-rum	8B\J	.	.	.	8dd\	-rum	.	.	.	.	.	.
8E\L	.	8E\L	a-	8c\L	a	2g\	-cu-	8ee\L	a-	.	.	.	.	.	.
8D\	.	8D\	.	8d\	.	.	.	8ff\	.	.	.	.	.	.	.
8C\	.	8C\	.	8e\	.	.	.	8gg\	.	.	.	.	.	.	.
8E\J	.	8E\J	.	8c\J	.	.	.	8ee\J	.	.	.	.	.	.	.
!	!	!	!	!	!	!LO:LB:g=original	!	!	!	!	!	!	!	!	!
=45	=45	=45	=45	=45	=45	=45	=45	=45	=45	=45	=45	=45	=45	=45	=45
4.G\	.	4.G\	.	8B\L	.	2g\	-lo-	8dd\L	.	1ryy	.	0r	.	0r	.
.	.	.	.	8A\	.	.	.	8cc\	.	.	.	.	.	.	.
.	.	.	.	8G\	.	.	.	8b\	.	.	.	.	.	.	.
8F\	.	8F\	.	8B\J	.	.	.	8dd\J	.	.	.	.	.	.	.
8E\L	.	8E\L	.	8c\L	.	2g\	-rum	8ee\L	.	.	.	.	.	.	.
8D\	.	8D\	.	8d\	.	.	.	8ff\	.	.	.	.	.	.	.
8C\	.	8C\	.	8e\	.	.	.	8gg\	.	.	.	.	.	.	.
8E\J	.	8E\J	.	8c\J	.	.	.	8cc\J	.	.	.	.	.	.	.
!	!	!LO:LB:g=original	!	!	!	!	!	!LO:LB:g=original	!	!	!	!	!	!	!
=46	=46	=46	=46	=46	=46	=46	=46	=46	=46	=46	=46	=46	=46	=46	=46
8F\L	.	8F\L	.	4f\	.	2a\	a-	4.cc\	.	1ryy	.	.	.	.	.
8G\	.	8G\	.	.	.	.	.	.	.	.	.	.	.	.	.
8A\	.	8A\	.	2f\	.	.	.	.	.	.	.	.	.	.	.
8F\J	.	8F\J	.	.	.	.	.	8dd\	.	.	.	.	.	.	.
8G\L	.	8G\L	.	.	.	4.g\	.	8b\L	.	.	.	.	.	.	.
8B\	.	8B\	.	.	.	.	.	8dd\J	.	.	.	.	.	.	.
8c\	.	8c\	.	4e\	.	.	.	[4cc\	.	.	.	.	.	.	.
8G\J	.	8F\J	.	.	.	8a\	.	.	.	.	.	.	.	.	.
!LO:LB:g=original	!	!	!	!LO:PB:g=original	!	!	!	!	!	!	!	!	!	!	!
=47	=47	=47	=47	=47	=47	=47	=47	=47	=47	=47	=47	=47	=47	=47	=47
!LO:TX:t=P:problem:mixed beam	!	!LO:TX:t=P:problem:mixed beam	!	!	!	!	!	!	!	!	!	!	!	!	!
8G\L	.	8G\L	-men	2d\	.	8g\L	.	8cc\L]	.	1ryy	.	1r	.	1r	.
8F\	.	8F\	.	.	.	8a\J	.	8dd\J	.	.	.	.	.	.	.
8G\	.	8G\	.	.	.	4g\	.	4b\	.	.	.	.	.	.	.
8GG/J	.	8GG/J	.	.	.	.	.	.	.	.	.	.	.	.	.
!	!	!	!	!LO:TX:t=P:problem:brak sylaby "men"	!	!	!	!	!	!	!	!	!	!	!
4C/	.	4C;/	.	4c\	.	4g\	-men	4cc\	-men	.	.	.	.	.	.
4r	.	4r	.	4r;	.	4r;	.	4r;	.	.	.	.	.	.	.
==	==	==	==	==	==	==	==	==	==	==	==	==	==	==	==
*-	*-	*-	*-	*-	*-	*-	*-	*-	*-	*-	*-	*-	*-	*-	*-
!!!system-decoration: [(s1,s2,s3)][(s4,s5,s6,s7)][(s8)]
!!!EED: Leszek Kubiak
!!!EST: 2021-02-15
!!!AIN: 2 alto 2 empty 1 organ 1 tenor 2 vox
!!!ENC: Anastazja Marusiak
!!!END: 2021-02-10
